X: 13328
T: Flat Cap
R: three-two
M: 3/2
K: Dminor
|:DEFGA2D2FGA2|c2G4C2EFGE|DEFGA2D2FGA2|d2A4GF EFGE:|
|:DEFG ABAG ABAG|c2C4C2EFGE|DEFG ABAF ABAF|d2A4GF EFGE:|
|:f2d2g2e2f2d2|A2e4c2efge|f2d2g2e2f3e|d2A4GF EFGE:|
|:defd efge fgaf|g2e4c2efge|defd efge agfe|d2A4GF EFGE:|
|:F2A2G2B2F2A2|c2G4C2EFGE|F2A2G2B2F2A2|d2A4GF EFGE:|

